**kern	**kern	**kern	**kern
*MM60	*MM60	*MM60	*MM60
*k[]	*k[]	*k[]	*k[]
*M4/4	*M4/4	*M4/4	*M4/4
*tb32	*tb32	*tb32	*tb32
=1	=1	=1	=1
8r	1r	1r	1r
8c	.	.	.
8d	.	.	.
8e	.	.	.
8f	.	.	.
8d	.	.	.
8e	.	.	.
8f	.	.	.
=2	=2	=2	=2
16g	1r	1r	1r
16a	.	.	.
16f	.	.	.
16g	.	.	.
16e	.	.	.
16a	.	.	.
16g	.	.	.
16a	.	.	.
16f	.	.	.
16g	.	.	.
16e	.	.	.
16f	.	.	.
16d	.	.	.
16g	.	.	.
16f	.	.	.
16g	.	.	.
=3	=3	=3	=3
16e	2r	1r	1r
16f	.	.	.
16d	.	.	.
16e	.	.	.
16c	.	.	.
16d	.	.	.
16e	.	.	.
16f#	.	.	.
8g	8r	.	.
4g	8G	.	.
.	8A	.	.
8f	8B	.	.
=4	=4	=4	=4
8e	8c	1r	1r
4a	8A	.	.
.	8B	.	.
8g	8c	.	.
8f#	16d	.	.
.	16e	.	.
4b	16c	.	.
.	16d	.	.
.	16B	.	.
.	16e	.	.
8g	16d	.	.
.	16e	.	.
=5	=5	=5	=5
16a	16c	1r	1r
16b	16d	.	.
16g	16B	.	.
16a	16c	.	.
16f#	16A	.	.
16g	16d	.	.
16e	16c	.	.
16f#	16d	.	.
8g	16B	.	.
.	16c	.	.
8d	16A	.	.
.	16B	.	.
8g	16G	.	.
.	16A	.	.
8f	16B	.	.
.	16G	.	.
=6	=6	=6	=6
4e	8c	8r	1r
.	4c	8C	.
8f	.	8D	.
8g	8B-	8E	.
8a	8A	8F	.
8f	4d	8D	.
8g	.	8E	.
8a	8c	8F	.
=7	=7	=7	=7
16b	8B	16G	1r
16cc	.	16A	.
16a	8d	16F	.
16b	.	16G	.
8g	8E	16E	.
.	.	16A	.
[8cc	8e	16G	.
.	.	16A	.
4.cc]	16a	16F	.
.	16b	16G	.
.	16g	16E	.
.	16a	16F	.
.	8f	16D	.
.	.	16G	.
8b	8d	16F	.
.	.	16G	.
=8	=8	=8	=8
8cc	16g	16E	1r
.	16a	16F	.
8b	16f	16D	.
.	16g	16E	.
16cc	8e	8C	.
16dd	.	.	.
8ee	16a	8c	.
.	16g	.	.
8.dd	16f#	8c	.
.	16d	.	.
.	[8g	8B	.
16dd	.	.	.
8.cc	16g]	4A	.
.	16e	.	.
.	8f#	.	.
16cc	.	.	.
=9	=9	=9	=9
8b	8g	8G	8r
16b	4d	4G	8GG
16dd	.	.	.
16cc	.	.	8AA
16ee	.	.	.
8dd	8d	8F	8BB
8ee	8c	8E	8C
16cc	4e	4A	8AA
16ee	.	.	.
16dd	.	.	8BB
16ff	.	.	.
8ee	8e	8G	8C
=10	=10	=10	=10
16ff	4.e	8F	16D
16gg	.	.	16E
16ee	.	8A	16C
16ff	.	.	16D
8dd	.	8B	16BB
.	.	.	16E
[8gg	8B	8G	16D
.	.	.	16E
4.gg]	16e	2A	16C
.	16f	.	16D
.	16d	.	16BB
.	16e	.	16C
.	8c	.	16AA
.	.	.	16D
8ff#	[8d	.	16C
.	.	.	16D
=11	=11	=11	=11
4gg	16d]	4G	16BB
.	16e	.	16C
.	16c	.	16AA
.	16d	.	16BB
8r	8B	4r	8GG
16ee	16g	.	[8G
16dd	16f	.	.
16cc	16e	2r	8G]
16a	16c	.	.
16dd	16f	.	[8F
16cc	16e	.	.
16b	16d	.	8F]
16g	16B	.	.
16cc	16e	.	8E
32dd	32f	.	.
32ee	32g	.	.
=12	=12	=12	=12
16ff	8a	4.cc	4.D
16ee	.	.	.
16ff	8g	.	.
16gg	.	.	.
16ff	8a	.	.
16aa	.	.	.
16gg	8b	8r	8D
16ff	.	.	.
8ee	8cc	2r	8C
16e	8c	.	4c
16g	.	.	.
16f	8d	.	.
16a	.	.	.
8g	8e	.	8B-
=13	=13	=13	=13
8a	8f	1r	8A
16f	8d	.	4d
16a	.	.	.
16g	8e	.	.
16b-	.	.	.
8a	8f	.	8c
8b	16g	.	4B
.	16a	.	.
8dd	16f	.	.
.	16g	.	.
8ee	16e	.	[4c
.	16a	.	.
8cc	16g	.	.
.	16a	.	.
=14	=14	=14	=14
8a	16f	1r	4.c]
.	16g	.	.
4dd	16e	.	.
.	16f	.	.
.	16d	.	.
.	16g	.	.
8dd	16f	.	8B
.	16g	.	.
8g	16e	.	16c
.	16f	.	16d
4gg	16d	.	16B
.	16e	.	16c
.	16c	.	4A
.	16B	.	.
8ff#	16c	.	.
.	16d	.	.
=15	=15	=15	=15
4.gg	8B	8r	4G
.	8b	8g	.
.	8cc	8a	4r
8ff	8dd	8b	.
8ee	8ee	8cc	2r
4aa	8cc	8a	.
.	8dd	8b	.
8gg	8ee	8cc	.
=16	=16	=16	=16
16ff#	4r	16dd	1r
16gg	.	16ee	.
16ee	.	16cc	.
16ff#	.	16dd	.
4gg	8dd	16b	.
.	.	16ee	.
.	8b	16dd	.
.	.	16ee	.
4.gg	8ee	16cc	.
.	.	16dd	.
.	8dd	16b	.
.	.	16cc	.
.	16cc	16a	.
.	16b	16dd	.
8ff#	8a	16cc	.
.	.	16dd	.
=17	=17	=17	=17
[2gg	16dd	16b	1r
.	16ee	16cc	.
.	16cc	16a	.
.	16dd	16b	.
.	16b	16g	.
.	16cc	16a	.
.	16a	16f	.
.	16b	16g	.
16gg]	8g	8e	.
16ff	.	.	.
16ee	4cc	8a	.
16gg	.	.	.
16ff	.	8d	.
16ee	.	.	.
16dd	8b	8g	.
16ff	.	.	.
=18	=18	=18	=18
8ee	8cc	8c	1r
8cc	8e	4c	.
8dd	8f	.	.
8ee	8g	8B-	.
8ff	8a	8A	.
8dd	8f	4d	.
8ee	8g	.	.
8ff	8a	8c	.
=19	=19	=19	=19
16gg	8b	4B	1r
16aa	.	.	.
16ff	8a	.	.
16gg	.	.	.
16ee	8g	[4c	.
16aa	.	.	.
16gg	8cc	.	.
16aa	.	.	.
16ff	8a	4.c]	.
16gg	.	.	.
16ee	8g	.	.
16ff	.	.	.
16dd	8f	.	.
16gg	.	.	.
16ff	8d	8B	.
16gg	.	.	.
=20	=20	=20	=20
8ee	8c	8G	8r
16ee	4e	4c	8C
16gg	.	.	.
16ff	.	.	8D
16aa	.	.	.
8gg	8d	8B-	8E
8aa	8c	8A	8F
16ff	4f	4d	8D
16aa	.	.	.
16gg	.	.	8E
16bb	.	.	.
8aa	8e	8c	8F
=21	=21	=21	=21
16bb	4d	8B	16G
16gg	.	.	16A
16aa	.	8A	16F
16bb	.	.	16G
8ccc	8e	8G	16E
.	.	.	16A
8ccc	8cc	8c	16G
.	.	.	16A
4.ccc	8f	8d	16F
.	.	.	16G
.	4f	4d	16E
.	.	.	16F
.	.	.	16D
.	.	.	16G
8bb	8f	8d	16F
.	.	.	16G
=22	=22	=22	=22
4ccc	4e	8c	8C
.	.	8G	16BB
.	.	.	16C
4r	4r	8A	16AA
.	.	.	16BB
.	.	8B	16GG
.	.	.	16AA
8r	2r	8c	8FF#
16f#	.	8A	4D
16a	.	.	.
16g	.	8B	.
16b	.	.	.
8a	.	8c	8C
=23	=23	=23	=23
16b	1r	16d	4BB
16cc	.	16e	.
16a	.	16c	.
16b	.	16d	.
8g	.	16B	4E
.	.	16e	.
[8gg	.	16d	.
.	.	16e	.
4.gg]	.	16c	4AA
.	.	16d	.
.	.	16B	.
.	.	16c	.
.	.	16A	4D
.	.	16d	.
8ff#	.	16c	.
.	.	16d	.
=24	=24	=24	=24
8gg	8r	8B	4GG
16gg	8b	8g	.
16aa	.	.	.
16gg	8a	8a	4r
16ff	.	.	.
16ee	8b	8b	.
16dd	.	.	.
8ee	8cc	8r	2r
8ee	8g	16c	.
.	.	16d	.
8ff	8a	16c	.
.	.	16B-	.
8gg	8b-	16A	.
.	.	16G	.
=25	=25	=25	=25
8aa	8cc	8F	1r
16ff	8a	8f	.
16gg	.	.	.
16ff	8b-	8g	.
16ee	.	.	.
16dd	8cc	8a	.
16cc	.	.	.
8dd	8b-	8b-	.
8dd	8f	16B-	.
.	.	16c	.
8ee	8g	16B-	.
.	.	16A	.
8ff	8a	16G	.
.	.	16F	.
=26	=26	=26	=26
8gg	8b-	8E	1r
16ee	8g	8e	.
16ff	.	.	.
16ee	8a	8f	.
16dd	.	.	.
16cc	8r	8g	.
16b-	.	.	.
8cc	8a	8a	.
8cc	8e	16A	.
.	.	16B-	.
8dd	8f	16A	.
.	.	16G	.
8ee	8g	16F	.
.	.	16E	.
=27	=27	=27	=27
8ff	8a	8D	2r
8b	16g	8r	.
.	16a	.	.
8cc	16g	4r	.
.	16f	.	.
8dd	16e	.	.
.	16d	.	.
8ee	8c	2r	8r
4ccc	16E	.	8CC
.	16G	.	.
.	16F	.	8DD
.	16A	.	.
8bb-	8G	.	8EE
=28	=28	=28	=28
8aa	8A	1r	8FF
4ddd	16F	.	8DD
.	16A	.	.
.	16G	.	8EE
.	16B	.	.
8ccc	8A	.	8FF
4bb	16B	.	16GG
.	16c	.	16AA
.	16A	.	16FF
.	16B	.	16GG
4ccc	16G	.	16EE
.	16c	.	16AA
.	16B	.	16GG
.	16c	.	16AA
=29	=29	=29	=29
4.ccc	8d	2r	16FF
.	.	.	16GG
.	8e	.	16EE
.	.	.	16FF
.	8f	.	16DD
.	.	.	16GG
8bb	8d	.	16FF
.	.	.	16GG
8ccc	8e	8r	[2CC
16cc	8E	8C	.
16dd	.	.	.
16cc	8F	8D	.
16b-	.	.	.
16a	8G	8E	.
16g	.	.	.
=30	=30	=30	=30
8a	8A	8F	1CC_
16dd	8F	8D	.
16ee	.	.	.
16dd	8G	8E	.
16cc	.	.	.
16b	8A	8F	.
16a	.	.	.
8b	8B	8G	.
8b	8d	16G	.
.	.	16A	.
8cc	8e	16G	.
.	.	16F	.
8dd	8f	16E	.
.	.	16D	.
=31	=31	=31	=31
8ee	8g	8C	1CC_
8ee	8g	16c	.
.	.	16d	.
8ff	8a	16c	.
.	.	16B-	.
8gg	8b-	16A	.
.	.	16G	.
4.aa	4.cc	8F	.
.	.	8C	.
.	.	[4F	.
8aa	8cc	.	.
=32	=32	=32	=32
4aa	1cc	4F]	1CC]
8gg	.	8E	.
8ff	.	8D	.
2gg	.	2E	.
==	==	==	==
*-	*-	*-	*-
